X:1
T:Aria Variata
T:Aria Variata BWV989
T:alla maniera italiana
T:Johann Sebastian Bach
C:J.S. Bach
%%score 1 { ( 2 3 7 8 ) | ( 4 5 6 ) }
L:1/8
Q:1/4=76
M:4/4
K:C
V:1 treble nm="Ossia"
V:2 treble nm="Harpsichord"
V:3 treble 
V:7 treble 
V:8 treble 
V:4 bass 
V:5 bass 
V:6 bass 
V:1
"^Andante" (A/4^G/4A/)G (3(G/4A/4G/4)A/B (G/4A/4G3/2) (^F<E) | A2 (A/B/-B/4c/4B/4c/4 d/c/B/A/) A2 | %2
 (^f/4e/4f/-f/4g/4f/4g/4 a3/2f/4e/4) (^d/4e/4d/)B (d/e/)G | %3
[K:treble] (^F/4G/4F3/2-) FE (E/4^D/4E3/2-) E2 :: cBcd (B/4c/4B/)A/G/ G2 | %5
 e^de^f (d/4e/4d/)^c/B/ B2 |[K:treble] (d/4e/4d/)^c de d<c dF | E3 D (D/4C/4D3/2-) D2 | %8
 (f/4e/4f/)g g/a/d (^c/4d/4c/)B B<A |[K:treble] (c/4B/4c/)d d/e/A ^G^F E2 | %10
 d/4e/4d/4e/4f (d/4e/4d/)B (3(A/4^G/4A/4G/)E (G<A-) | A3/2B/4c/4 (^G/4A/4G)A/ A4 :| %12
V:2
 MA^G{G}MAB PG2{^F} E2 | A2{A} B2{d} cB/A/ !arpeggio!A2 | M^f2 a2{fe} P^dB{d}eG | P^F3 E ME4 :: %4
 cBcd PBA/G/ G2 | e^de^f Pd^c/B/ B2 | Pd^cde{d} c2 dF | E3 D MD4 | Mfg{g}ad P^cB{B} A2 | %9
 Mcd{d}eA ^G^F E2 | f2 PdB{A} P^GE{G} A2- | A3/2B/4c/4 P^G>A A4 :| %12
V:3
 E2 E2 E2 B,2 | E2 D2 C2 E2 | A4 ^F2 E2- | E2 ^D2 E2 B,2 :: EDEF D4 | G^FGA F4 | E4 E2 D2- | %7
 D2 ^C2 D2 A,2 | D2 E2 A2 E2 | E3 D E2 B,2 | D4 E2 z C | B,C D2- DP^C/B,/{B,} C2 :| %12
V:4
 A,2 A,,2 E,3 D, | C,2 ^G,,2 A,,2 A,B, | C3 B,/A,/ B,A,G,B, | B,2 B,,2 E,2 E,,2 :: %4
!ped! C,2 C,,2 G,3 ^F,!ped-up! |!ped! E,2 E,,2 B,3 A,!ped-up! | ^G,2 E,2 A,=G,F,D, | %7
 G,,_B,, A,,2 D,2 D,,2 | D,2 C,_B,, A,,4 | A,2 G,F, E,4 | D,6 ^D,2 | E,2 E,,2 A,,4 :| %12
V:5
 CB,CD B,2 ^G,2 | A,2 E,2 A,2 C2 | ^D2 E2 B,4 | B,2 ^F,^G,/A,/- A,PG,/F,/ G,2 :: G,4- G,A, B,2 | %5
 B,4 B,^C ^D2 | B,4 A,4 | _B,A,/G,/ PA,E,/G,/- G,^F,/E,/ F,2 | A,3 D ED ^C2 | A,2 B,D B,A, ^G,2 | %10
 B,6 ^F,2 | B,4 A,4 :| %12
V:6
 x8 | x4 E,2 x2 | x8 | x8 :: x8 | x8 | x8 | x8 | x8 | x8 | x8 | x8 :| %12
V:7
 x8 | x8 | x8 | x8 :: x8 | x8 | x2 ^G2 A2 x2 | x8 | x8 | x8 | x8 | x8 :| %12
V:8
 x8 | x8 | x8 | x8 :: x8 | x8 | x8 | x8 | A3 G x4 | A2 x6 | x8 | x4 E4 :| %12

